X: 8201
T: Coolin, The
R: strathspey
M: 4/4
K: Dmajor
FG|A2 d2 de|f2 A2 FG|A2 AB AG|FE H{FE}D2 F>G|
A2 d2 de|f2 A2 FA|B2 Bd c>B|A4 F>G|
A2 A2 (3ABc|d2 de f>d|A2 AB AG|FE H{FE}D2 F>G|
A2 f2 ef|d>e f2 A2|FA G>F E>F|D4||

